svg/blobs-icons/no-decorations/luggage-trolley.svg

<svg xmlns="http://www.w3.org/2000/svg" preserveAspectRatio="xMidYMid" width="217" height="174"><defs><style>.cls-3{fill:#142a3b}.cls-6{fill:#ff3a2f}.cls-8{fill:#020403;opacity:.45}</style></defs><g id="group-36svg"><path d="M154.3 36.931H86.289V10.166H154.3v26.765zm-60.782-7.228h53.553V17.396H93.518v12.307z" id="path-1" class="cls-3" fill-rule="evenodd"/><path d="M192.586 124.939H48.003a6.427 6.427.0 01-6.425-6.427V35.8a6.426 6.426.0 016.425-6.426h144.583a6.426 6.426.0 016.426 6.426v82.712a6.427 6.427.0 01-6.426 6.427z" id="path-2" fill-rule="evenodd" style="fill:#0cb04a"/><path d="M173.672 29.374h-1.376c4.328 4.546 7 10.682 7 17.454v44.884c0 13.994-11.345 25.341-25.34 25.341H48.578c4.615 4.849 11.116 7.886 18.339 7.886h106.755c13.995.0 25.34-11.347 25.34-25.341V54.715c0-13.996-11.345-25.341-25.34-25.341z" id="path-3" fill-rule="evenodd" style="fill:#020403;opacity:.35"/><path d="M69.637 152.031a14.103 14.103.0 00-2.393 7.875c0 7.829 6.347 14.176 14.175 14.176 7.829.0 14.175-6.347 14.175-14.176.0-2.915-.883-5.622-2.393-7.875H69.637z" id="path-4" class="cls-6" fill-rule="evenodd"/><path d="M140.513 152.031a14.11 14.11.0 00-2.393 7.875c0 7.829 6.347 14.176 14.176 14.176s14.175-6.347 14.175-14.176c0-2.915-.884-5.622-2.393-7.875h-23.565z" id="path-5" class="cls-6" fill-rule="evenodd"/><path d="M69.637 152.031a14.103 14.103.0 00-2.393 7.875c0 1.086.148 2.133.379 3.15h27.592c.232-1.017.379-2.064.379-3.15.0-2.915-.883-5.622-2.393-7.875H69.637z" id="path-6" class="cls-8" fill-rule="evenodd"/><path d="M140.513 152.031a14.11 14.11.0 00-2.393 7.875c0 1.086.148 2.133.38 3.15h27.592c.231-1.017.379-2.064.379-3.15.0-2.915-.884-5.622-2.393-7.875h-23.565z" id="path-7" class="cls-8" fill-rule="evenodd"/><path d="M43.85 155.652c-18.139.0-32.844-14.705-32.844-32.844V32.381c0-5.975-2.784-11.303-7.126-14.754C-.78 13.923-1.395 7.11 2.814 2.9 5.504.21 9.54-.749 13.092.615c7.07 2.713 12.089 9.566 12.089 17.592v90.425c0 18.14 14.705 32.845 32.844 32.845h151.599a7.24 7.24.0 017.241 7.24 7.243 7.243.0 01-7.257 7.243l-165.758-.308z" id="path-8" class="cls-3" fill-rule="evenodd"/><path d="M170.086 124.939h-7.229V31.265h7.229v93.674z" id="path-9" class="cls-3" fill-rule="evenodd"/><path d="M77.946 124.939h-7.229V31.265h7.229v93.674z" id="path-10" class="cls-3" fill-rule="evenodd"/></g></svg>

<svg xmlns="http://www.w3.org/2000/svg" xmlns:xlink="http://www.w3.org/1999/xlink" preserveAspectRatio="xMidYMid" width="217" height="174" viewBox="0 0 217 174"><defs><style>.cls-3{fill:#142a3b}.cls-4{fill:#0cb04a}.cls-5{fill:#020403;opacity:.35}.cls-6{fill:#ff3a2f}.cls-8{fill:#020403;opacity:.45}</style></defs><g id="group-36svg"><path d="M154.3 36.931s-68.011.0-68.011.0.0-26.765.0-26.765 68.011.0 68.011.0.0 26.765.0 26.765zM93.518 29.703s53.553.0 53.553.0.0-12.307.0-12.307-53.553.0-53.553.0.0 12.307.0 12.307z" id="path-1" class="cls-3" fill-rule="evenodd"/><path d="M192.586 124.939s-144.583.0-144.583.0C44.455 124.939 41.578 122.061 41.578 118.512V35.8c0-3.549 2.877-6.426 6.425-6.426H192.586C196.135 29.374 199.012 32.251 199.012 35.8v82.712C199.012 122.061 196.135 124.939 192.586 124.939z" id="path-2" class="cls-4" fill-rule="evenodd"/><path d="M173.672 29.374s-1.376.0-1.376.0c4.328 4.546 7 10.682 7 17.454V91.712c0 13.994-11.345 25.341-25.34 25.341H48.578c4.615 4.849 11.116 7.886 18.339 7.886H173.672c13.995.0 25.34-11.347 25.34-25.341V54.715c0-13.996-11.345-25.341-25.34-25.341z" id="path-3" class="cls-5" fill-rule="evenodd"/><path d="M69.637 152.031C68.128 154.284 67.244 156.991 67.244 159.906 67.244 167.735 73.591 174.082 81.419 174.082 89.248 174.082 95.594 167.735 95.594 159.906 95.594 156.991 94.711 154.284 93.201 152.031H69.637z" id="path-4" class="cls-6" fill-rule="evenodd"/><path d="M140.513 152.031C139.005 154.284 138.12 156.991 138.12 159.906 138.12 167.735 144.467 174.082 152.296 174.082 160.125 174.082 166.471 167.735 166.471 159.906 166.471 156.991 165.587 154.284 164.078 152.031H140.513z" id="path-5" class="cls-6" fill-rule="evenodd"/><path d="M69.637 152.031C68.128 154.284 67.244 156.991 67.244 159.906 67.244 160.992 67.392 162.039 67.623 163.056H95.215C95.447 162.039 95.594 160.992 95.594 159.906 95.594 156.991 94.711 154.284 93.201 152.031H69.637z" id="path-6" class="cls-8" fill-rule="evenodd"/><path d="M140.513 152.031C139.005 154.284 138.12 156.991 138.12 159.906 138.12 160.992 138.268 162.039 138.5 163.056h27.592C166.323 162.039 166.471 160.992 166.471 159.906 166.471 156.991 165.587 154.284 164.078 152.031H140.513z" id="path-7" class="cls-8" fill-rule="evenodd"/><path d="M43.85 155.652c-18.139.0-32.844-14.705-32.844-32.844V32.381c0-5.975-2.784-11.303-7.126-14.754C-.78 13.923-1.395 7.11 2.814 2.9 5.504.21 9.54-.749 13.092.615c7.07 2.713 12.089 9.566 12.089 17.592v90.425c0 18.14 14.705 32.845 32.844 32.845H209.624C213.623 141.477 216.865 144.719 216.865 148.717 216.865 152.723 213.613 155.968 209.608 155.96L43.85 155.652z" id="path-8" class="cls-3" fill-rule="evenodd"/><path d="M170.086 124.939S162.857 124.939 162.857 124.939s0-93.674.0-93.674S170.086 31.265 170.086 31.265s0 93.674.0 93.674z" id="path-9" class="cls-3" fill-rule="evenodd"/><path d="M77.946 124.939s-7.229.0-7.229.0.0-93.674.0-93.674 7.229.0 7.229.0.0 93.674.0 93.674z" id="path-10" class="cls-3" fill-rule="evenodd"/></g></svg>
